icons/Business/medal-line.svg

<svg viewBox="0 0 24 24" xmlns="http://www.w3.org/2000/svg"><path d="M12 7.00002C16.4183 7.00002 20 10.5817 20 15C20 19.4183 16.4183 23 12 23C7.58172 23 4 19.4183 4 15C4 10.5817 7.58172 7.00002 12 7.00002ZM12 9.00002C8.68629 9.00002 6 11.6863 6 15C6 18.3137 8.68629 21 12 21C15.3137 21 18 18.3137 18 15C18 11.6863 15.3137 9.00002 12 9.00002ZM12 10.5L13.3225 13.1797L16.2798 13.6094L14.1399 15.6953L14.645 18.6406L12 17.25L9.35497 18.6406L9.86012 15.6953L7.72025 13.6094L10.6775 13.1797L12 10.5ZM18 2.00002V5.00002L16.6366 6.13758C15.5305 5.55773 14.3025 5.17887 13.0011 5.04951L13 1.99902L18 2.00002ZM11 1.99902L10.9997 5.04943C9.6984 5.17866 8.47046 5.55738 7.36441 6.13706L6 5.00002V2.00002L11 1.99902Z"/></svg>

<svg xmlns="http://www.w3.org/2000/svg" viewBox="0 0 24 24">
    <g>
        <path fill="none" d="M0 0h24v24H0z"/>
        <path fill-rule="nonzero" d="M12 7a8 8 0 1 1 0 16 8 8 0 0 1 0-16zm0 2a6 6 0 1 0 0 12 6 6 0 0 0 0-12zm0 1.5l1.323 2.68 2.957.43-2.14 2.085.505 2.946L12 17.25l-2.645 1.39.505-2.945-2.14-2.086 2.957-.43L12 10.5zM18 2v3l-1.363 1.138A9.935 9.935 0 0 0 13 5.049L13 2 18 2zm-7-.001v3.05a9.935 9.935 0 0 0-3.636 1.088L6 5V2l5-.001z"/>
    </g>
</svg>
